X:1
T:Grablied
T:Grablied
T:TTBB a capella
T:Peter Cornelius (1825 - 1874)
C:Peter Cornelius (1825 - 1874)
%%score [ 1 2 3 4 ]
L:1/8
Q:1/4=50
M:2/4
K:Ab
V:1 treble-8 nm="T1"
V:2 treble-8 nm="T2"
V:3 bass nm="B1"
V:4 bass nm="B2"
V:1
!p!"^Gemessen, nicht schleppend" c2 d B | (cf) g a | g2 f =e | f2 A B | c2 d B | (cf) g a | %6
w: 1.Pil- ger auf|Er- * den, so|ra- ste an|Zie- le. Hier|la- be dich|Frie- * den nach|
w: 2.Pil- ger auf|Ster- * nen, un-|ster- li- che|See- le. Du|schweb- est zum|Him- * mel auf|
 f2 =e2 | f3 z |!mf! f2 f f | !>!a2 !>!a2 | f2 f g | !>!c2 !>!c2 | f2 f f | a2!>(! a2!>)! | %14
w: lan- ger|Fahrt.|Was auch dein|Herz- weh,|was auch dem|leid war,|Hei- len- den|Bal- sam|
w: gold- nem|Pfad.|Ba- dest im|Glanz- meer|gött- li- cher|Klar- heit,|Nur, was dem|Staub war,|
!p! e2"^decresc." e e | e3 z |!pp! f2 e d | e2 e f | _g2 f e | f2 f f |!<(! f2 f f | f2 f f | %22
w: gab dir der|Tod.|Pil- ger auf|Er- den, vom|Wan- dern er-|mat- tet, Nun|ru- he im|Scho- ße, der|
w: gabst du der|Staub.|Pil- ger auf|Ster- nen, die|Trä- ne der|Sehn- sucht Ge-|lei- te zur|e- wi- gen|
 (f2!<)!!>(! =a3/2) g/!>)! |!p! !fermata!f3 z |] %24
w: Er- * de|aus.|
w: Hei- * mat|dich.|
V:2
!p! f2 f f | f2 c c | c2 c c | c2 f f | f2 f f | f2 c c | c2 c2 | c3 z |!mf! d2 d d | !>!f2 !>!f2 | %10
w: 1.Pil- ger auf|Er- den, so|ra- ste an|Zie- le. Hier|la- be dich|Frie- den nach|lan- ger|Fahrt.|Was auch dein|Herz- weh,|
w: 2.Pil- ger auf|Ster- nen, un-|ster- li- che|See- le. Du|schweb- est zum|Him- mel auf|gold- nem|Pfad.|Ba- dest im|Glanz- meer|
 d2 d d | !>!G2 !>!G2 | A2 A d | c2!>(! _c2!>)! |!p! B2"^decresc." =c d | c3 z |!pp! d2 c d | %17
w: was auch dem|leid war,|Hei- len- den|Bal- sam|gab dir der|Tod.|Pil- ger auf|
w: gött- li- cher|Klar- heit,|Nur, was dem|Staub war,|gabst du der|Staub.|Pil- ger auf|
 c2 c d | c2 d c | d2 A A |!<(! A2 A A | A2 A A | (=Ac!<)!!>(! =e3/2) c/!>)! |!p! !fermata!c3 z |] %24
w: Er- den, vom|Wan- dern er-|mat- tet, Nun|ru- he im|Scho- ße, der|Er- * * de|aus.|
w: Ster- nen, die|Trä- ne der|Sehn- sucht Ge-|lei- te zur|e- wi- gen|Hei- * * mat|dich.|
V:3
!p! A,2 B, A, | A,2 B, C | B,2 A, G, | A,2 F, G, | A,2 B, G, | A,2 B, C | B,2 B,2 | A,3 z | %8
w: 1.Pil- ger auf|Er- den, so|ra- ste an|Zie- le. Hier|la- be dich|Frie- den nach|lan- ger|Fahrt.|
w: 2.Pil- ger auf|Ster- nen, un-|ster- li- che|Se- le. Du|Schweb- est zun|Him- mel auf|gold- nem|Pfad.|
!mf! A,2 A, A, | !>!C2 !>!C2 | B,2 B, B, | !>!=E,2 !>!E,2 | F,2 F, F, | F,2!>(! A,2!>)! | %14
w: Was auch dein|Herz- weh,|was auch dem|leid war,|Hei- len- den|Bal- sam|
w: Ba- dest in|Glanz- meer|göott- li- cher|Klar- heit,|Nur, was dem|Staub war,|
!p! A,2"^decresc." G, G, | A,2 A, A, |!pp! A,2 A, A, | A,2 A, A, | A,2 A, A, | A,2 A, C | %20
w: gab dir der|Tod. Pil- ger,|Pil- ger auf|Er- den, vom|Wan- dern er-|mat- tet, Nun|
w: gabst du der|Staub. Pil- ger,|Pil- ger auf|Ster- nen, die|Trä- ne der|Sehn- sucht Ge-|
!<(! =D2 C C | =B,2 C =D | (C=A,!<)!!>(! _B,3/2) B,/!>)! |!p! !fermata!=A,3 z |] %24
w: ru- he im|Scho- ße, der|Er- * * de|aus.|
w: lei- te zur|e- wi- gen|Hei- * * mat|dich.|
V:4
!p! F,2 F, F, | F,2 F, F, | C,2 C, C, | F,2 F, F, | F,2 F, F, | F,2 F, F, | C,2 C,2 | F,3 z | %8
w: 1.Pil- ger auf|Er- den, so|ra- ste an|Zie- le. Hier|la- be dich|Frie- den nach|lan- ger|Fahrt.|
w: 2.Pil- ger auf|Ster- nen, un-|ster- li- che|See- le. Du|Schweb- est zum|Him- mel auf|gold- nem|Pfad.|
!mf! D,2 D, D, | !>!A,,2 !>!A,,2 | B,,2 B,, B,, | !>!C,2 !>!C,2 | D,2 C, B,, | A,,2!>(! =D,2!>)! | %14
w: Was auch dein|Herz- weh,|was auch dem|leid war,|Hei- len- den|Bal- sam|
w: Ba- dest in|Glanz- meer|gött- li- cher|Klar- heit,|Nur, was dem|Staub war,|
!p! E,2"^decresc." E, E, | A,,3 z |!pp! D,2 A,, F,, | A,,2 A,, D, | E,2 D, A,, | D,2 D, C, | %20
w: gab dir der|Tod.|Pil- ger auf|Er- den, vom|Wan- dern er-|mat- tet, Nun|
w: gabst du der|Staub.|Pil- ger auf|Ster- nen, die|Tr- \-ne der|Sehn- sucht Ge-|
!<(! =B,,2 C, C, | =D,2 C, =B,, | C,7/2!<)!!>(! C,/!>)! |!p! !fermata!F,3 z |] %24
w: ru- he im|Scho- ße, der|Er- de|aus.|
w: lei- te zur|e- wi- gen|Hei- mat|dich.|

